icon-svg/christmas-wreath.svg

<svg xmlns="http://www.w3.org/2000/svg" fill="#44739e" viewBox="0 0 24 24"><path d="M21.559 12.494A1.479 1.479 0 0 0 21 11.336a1.52 1.52 0 0 0-.631-2.245 1.426 1.426 0 0 0-.106-1.3 1.519 1.519 0 0 0-1.052-.737 1.585 1.585 0 0 0-.456-1.228 1.51 1.51 0 0 0-1.228-.456 1.444 1.444 0 0 0-.6-.959 1.719 1.719 0 0 0-.029-1.953A1.261 1.261 0 0 0 15.806 2a8.06 8.06 0 0 0-3.3 1.129 2.09 2.09 0 0 0-1.079-.01A8.02 8.02 0 0 0 8.089 2a1.246 1.246 0 0 0-1.123.527A1.712 1.712 0 0 0 6.948 4.5a1.447 1.447 0 0 0-.473.871 1.572 1.572 0 0 0-1.684 1.685 1.487 1.487 0 0 0-1.052.737 1.68 1.68 0 0 0-.106 1.3 1.4 1.4 0 0 0-.842.982A1.447 1.447 0 0 0 3 11.336a1.6 1.6 0 0 0-.561 1.192A1.481 1.481 0 0 0 3 13.686a1.52 1.52 0 0 0 .631 2.245 1.426 1.426 0 0 0 .106 1.3 1.519 1.519 0 0 0 1.052.737 1.585 1.585 0 0 0 .456 1.228 1.513 1.513 0 0 0 1.228.456 1.491 1.491 0 0 0 .738 1.048 1.68 1.68 0 0 0 1.3.1 1.4 1.4 0 0 0 .983.842 1.447 1.447 0 0 0 1.263-.21 1.606 1.606 0 0 0 1.19.568 1.922 1.922 0 0 0 1.3-.6 1.574 1.574 0 0 0 1.263.21 1.482 1.482 0 0 0 .982-.842 1.425 1.425 0 0 0 1.3-.1 1.523 1.523 0 0 0 .737-1.052 1.586 1.586 0 0 0 1.228-.457 1.507 1.507 0 0 0 .456-1.227 1.49 1.49 0 0 0 1.052-.737 1.68 1.68 0 0 0 .106-1.3 1.4 1.4 0 0 0 .842-.982A1.447 1.447 0 0 0 21 13.651a1.481 1.481 0 0 0 .561-1.158ZM16.3 9.652a1.6 1.6 0 0 0 .948.7 1.607 1.607 0 0 0-.176 1.157 1.812 1.812 0 0 0 .632 1.018 1.64 1.64 0 0 0-.632 1.017 1.476 1.476 0 0 0 .176 1.158 1.7 1.7 0 0 0-.948.7 1.74 1.74 0 0 0-.28 1.158 1.735 1.735 0 0 0-1.158.281 1.592 1.592 0 0 0-.7.947 1.715 1.715 0 0 0-2.175.456 1.638 1.638 0 0 0-1.017-.631 1.476 1.476 0 0 0-1.158.175 1.7 1.7 0 0 0-.7-.947 1.735 1.735 0 0 0-1.158-.281 1.73 1.73 0 0 0-.281-1.157 1.588 1.588 0 0 0-.947-.7 1.61 1.61 0 0 0 .174-1.157 1.808 1.808 0 0 0-.631-1.017 1.808 1.808 0 0 0 .631-1.017 1.472 1.472 0 0 0-.175-1.158 1.7 1.7 0 0 0 .947-.7 1.73 1.73 0 0 0 .281-1.157 1.55 1.55 0 0 0 .373.007l-.553 1.113a.392.392 0 0 0 .07.386.319.319 0 0 0 .386.07L9.6 9.512l.28 1.333c0 .141.141.246.281.281h.035a.486.486 0 0 0 .351-.176l1.429-2.859 1.412 2.824a.338.338 0 0 0 .316.211h.07a.379.379 0 0 0 .281-.281l.281-1.368 1.368.561a.344.344 0 0 0 .456-.456L15.616 8.5a1.58 1.58 0 0 0 .4 0 1.73 1.73 0 0 0 .28 1.157zM9.22 8.126c.021-.017.041-.035.061-.053.035-.035.035-.07.07-.105l.033-.048a4.62 4.62 0 0 0 1.686-.478l.443-.221.033.006-1.212 2.46-.141-.737c-.035-.1-.07-.21-.175-.245a.316.316 0 0 0-.175-.035.213.213 0 0 1-.143-.035l-.912.35zm3.113-.895c.035 0 .035 0 .07.036l.421.21a4.06 4.06 0 0 0 1.684.491l.562 1.123-.913-.351c-.07-.07-.175-.035-.281 0a.405.405 0 0 0-.175.245l-.14.737zm3.543-4.525a.666.666 0 0 1 .456.175c.281.316.211.772-.105 1.369a5.12 5.12 0 0 0-.386 2.315.666.666 0 0 1-.6.631.51.51 0 0 1-.211.035h-.245a4.24 4.24 0 0 1-1.551-.407 2.07 2.07 0 0 0 .748-1.124l.005-.02c.006-.023.011-.046.016-.07s.015-.069.02-.1.007-.043.01-.065l.006-.047c0-.026.005-.052.007-.078v-.306c0-.027 0-.055-.007-.082v-.037c0-.027-.007-.053-.012-.08s-.014-.078-.023-.117l-.007-.029c-.007-.03-.015-.06-.024-.089l-.006-.021c-.01-.034-.022-.069-.034-.1v-.007a1.2 1.2 0 0 0-.041-.1c-.015-.031-.024-.054-.037-.081l-.005-.011a2.36 2.36 0 0 0-.6-.772 7.7 7.7 0 0 1 2.631-.772zm-3.523 1.113a.31.31 0 0 0 .086.045 1.33 1.33 0 0 1 .24.1 1.4 1.4 0 0 1-.128 2.461 1.4 1.4 0 0 1-.183.068 2.1 2.1 0 0 1-.421.07 1.37 1.37 0 0 1-.3-.033.3.3 0 0 0-.087-.037 1.4 1.4 0 0 1-.985-1.036v-.036l-.007-.039v-.386a1.4 1.4 0 0 1 1.8-1.179zm-4.826-.9a.564.564 0 0 1 .456-.211h.07a7.67 7.67 0 0 1 2.631.772l-.055.046a2.115 2.115 0 0 0-.752 1.262v.018c-.005.031-.01.061-.014.091v.031c0 .029-.006.057-.008.086v.304c0 .026 0 .052.007.078l.006.048c0 .021.006.042.01.063s.012.068.019.1l.018.078a2.244 2.244 0 0 0 .764 1.183q-.105.057-.213.108a3.96 3.96 0 0 1-1.138.281.37.37 0 0 0-.147-.029H8.9a1 1 0 0 0-.215-.028c-.6-.175-.6-.561-.6-.666a5.84 5.84 0 0 0-.316-2.07.28.28 0 0 0-.055-.07c-.025-.057-.044-.092-.05-.1-.351-.6-.386-1.053-.14-1.368Zm12.629 10.416a.3.3 0 0 0-.245.281.334.334 0 0 0 .14.351.782.782 0 0 1 .316.877.8.8 0 0 1-.7.6.352.352 0 0 0-.281.211.43.43 0 0 0 .071.351.8.8 0 0 1 .07.947.777.777 0 0 1-.842.386.408.408 0 0 0-.351.14.324.324 0 0 0-.035.351.772.772 0 0 1-.175.912.759.759 0 0 1-.912.176.322.322 0 0 0-.351.035.358.358 0 0 0-.141.35.733.733 0 0 1-.385.842.8.8 0 0 1-.948-.07.334.334 0 0 0-.35-.07.3.3 0 0 0-.211.281.792.792 0 0 1-.6.7.78.78 0 0 1-.877-.315.45.45 0 0 0-.349-.144.343.343 0 0 0-.281.246.829.829 0 0 1-1.543 0 .3.3 0 0 0-.281-.246h-.035a1.04 1.04 0 0 0-.351.106.781.781 0 0 1-.877.315.794.794 0 0 1-.6-.7.348.348 0 0 0-.211-.281.43.43 0 0 0-.35.07.8.8 0 0 1-.948.07.777.777 0 0 1-.385-.842.4.4 0 0 0-.138-.351.322.322 0 0 0-.351-.035.772.772 0 0 1-.912-.176.76.76 0 0 1-.175-.912.324.324 0 0 0-.035-.351.359.359 0 0 0-.351-.14.778.778 0 0 1-.842-.386.8.8 0 0 1 .07-.947.334.334 0 0 0 .071-.351.307.307 0 0 0-.281-.21.793.793 0 0 1-.7-.6.783.783 0 0 1 .316-.877.45.45 0 0 0 .14-.351.339.339 0 0 0-.25-.278.829.829 0 0 1 0-1.544.3.3 0 0 0 .246-.28.334.334 0 0 0-.14-.351.783.783 0 0 1-.316-.877.8.8 0 0 1 .7-.6.348.348 0 0 0 .28-.21.433.433 0 0 0-.07-.351.861.861 0 0 1-.07-.947.777.777 0 0 1 .842-.386.408.408 0 0 0 .351-.14.548.548 0 0 0 .11-.414.772.772 0 0 1 .175-.912.759.759 0 0 1 .912-.176.32.32 0 0 0 .351-.035.358.358 0 0 0 .141-.35.715.715 0 0 1 .038-.371 6.5 6.5 0 0 1 .1 1.212 1.385 1.385 0 0 0 .776 1.2 1.008 1.008 0 0 1-.636-.254.338.338 0 0 0-.491 0A.374.374 0 0 0 7 8a1.007 1.007 0 0 1 .07 1.228 1.026 1.026 0 0 1-1.157.386.4.4 0 0 0-.456.21.348.348 0 0 0 .175.456.938.938 0 0 1 .526 1.088.978.978 0 0 1-.912.806.347.347 0 0 0-.316.351.92.92 0 0 0 .211.456.978.978 0 0 1 .912.807.938.938 0 0 1-.526 1.088.348.348 0 0 0-.176.456.365.365 0 0 0 .456.21 1.025 1.025 0 0 1 1.158.386.962.962 0 0 1-.065 1.232.338.338 0 0 0 0 .491.374.374 0 0 0 .491 0 1.007 1.007 0 0 1 1.228-.07A1.026 1.026 0 0 1 9 18.738a.4.4 0 0 0 .21.456.347.347 0 0 0 .456-.175 1 1 0 0 1 1.895.386.352.352 0 0 0 .7 0 .978.978 0 0 1 .807-.912.938.938 0 0 1 1.088.526.347.347 0 0 0 .456.175.365.365 0 0 0 .21-.456 1.024 1.024 0 0 1 .386-1.157.961.961 0 0 1 1.228.07.339.339 0 0 0 .491 0 .374.374 0 0 0 0-.491 1.007 1.007 0 0 1-.07-1.228 1.024 1.024 0 0 1 1.157-.386.4.4 0 0 0 .456-.21.348.348 0 0 0-.175-.456 1 1 0 0 1 .386-1.9.353.353 0 0 0 0-.7.977.977 0 0 1-.912-.807.938.938 0 0 1 .526-1.088.348.348 0 0 0 .175-.456.365.365 0 0 0-.456-.21 1.026 1.026 0 0 1-1.157-.386.961.961 0 0 1 .07-1.228.339.339 0 0 0 0-.491.374.374 0 0 0-.491 0 .974.974 0 0 1-.772.245 1.263 1.263 0 0 0 .844-1.206.8.8 0 0 0 0-.122c0-.181.006-.346.014-.5a6.1 6.1 0 0 1 .072-.641c.006-.032.012-.064.019-.095a.66.66 0 0 1 .105.526.407.407 0 0 0 .141.351.322.322 0 0 0 .35.035.771.771 0 0 1 .912.175.759.759 0 0 1 .179.918.324.324 0 0 0 .035.351.359.359 0 0 0 .351.14.779.779 0 0 1 .842.386.8.8 0 0 1-.071.947.336.336 0 0 0-.07.351.306.306 0 0 0 .281.211.756.756 0 0 1 .7.6.782.782 0 0 1-.316.877.36.36 0 0 0-.141.351.344.344 0 0 0 .246.281.829.829 0 0 1 0 1.543"/></svg>

<svg xmlns="http://www.w3.org/2000/svg" fill="#44739e" width="24" height="24" version="1.1" viewBox="0 0 24 24"><path d="M 21.559,12.494 A 1.479,1.479 0 0 0 21,11.336 1.52,1.52 0 0 0 20.369,9.091 1.426,1.426 0 0 0 20.263,7.791 1.519,1.519 0 0 0 19.211,7.054 1.585,1.585 0 0 0 18.755,5.826 1.51,1.51 0 0 0 17.527,5.37 1.444,1.444 0 0 0 16.927,4.411 1.719,1.719 0 0 0 16.898,2.458 1.261,1.261 0 0 0 15.806,2 8.064,8.064 0 0 0 12.506,3.129 2.089,2.089 0 0 0 11.427,3.119 8.023,8.023 0 0 0 8.089,2 1.246,1.246 0 0 0 6.966,2.527 1.712,1.712 0 0 0 6.948,4.5 1.447,1.447 0 0 0 6.475,5.371 1.572,1.572 0 0 0 4.791,7.056 1.487,1.487 0 0 0 3.739,7.793 1.681,1.681 0 0 0 3.633,9.093 1.4,1.4 0 0 0 2.791,10.075 1.447,1.447 0 0 0 3,11.336 1.6,1.6 0 0 0 2.439,12.528 1.481,1.481 0 0 0 3,13.686 a 1.52,1.52 0 0 0 0.631,2.245 1.426,1.426 0 0 0 0.106,1.3 1.519,1.519 0 0 0 1.052,0.737 1.585,1.585 0 0 0 0.456,1.228 1.513,1.513 0 0 0 1.228,0.456 1.491,1.491 0 0 0 0.738,1.048 1.681,1.681 0 0 0 1.3,0.1 1.4,1.4 0 0 0 0.983,0.842 1.447,1.447 0 0 0 1.263,-0.21 1.606,1.606 0 0 0 1.19,0.568 1.922,1.922 0 0 0 1.3,-0.6 1.574,1.574 0 0 0 1.263,0.21 1.482,1.482 0 0 0 0.982,-0.842 1.425,1.425 0 0 0 1.3,-0.1 1.523,1.523 0 0 0 0.737,-1.052 1.586,1.586 0 0 0 1.228,-0.457 1.507,1.507 0 0 0 0.456,-1.227 1.49,1.49 0 0 0 1.052,-0.737 1.681,1.681 0 0 0 0.106,-1.3 1.4,1.4 0 0 0 0.842,-0.982 A 1.447,1.447 0 0 0 21,13.651 1.481,1.481 0 0 0 21.561,12.493 Z M 16.3,9.652 a 1.6,1.6 0 0 0 0.948,0.7 1.607,1.607 0 0 0 -0.176,1.157 1.812,1.812 0 0 0 0.632,1.018 1.64,1.64 0 0 0 -0.632,1.017 1.476,1.476 0 0 0 0.176,1.158 1.7,1.7 0 0 0 -0.948,0.7 1.739,1.739 0 0 0 -0.28,1.158 1.735,1.735 0 0 0 -1.158,0.281 1.592,1.592 0 0 0 -0.7,0.947 1.715,1.715 0 0 0 -2.175,0.456 A 1.638,1.638 0 0 0 10.97,17.613 1.476,1.476 0 0 0 9.812,17.788 1.7,1.7 0 0 0 9.112,16.841 1.735,1.735 0 0 0 7.954,16.56 1.73,1.73 0 0 0 7.673,15.403 1.588,1.588 0 0 0 6.726,14.703 1.61,1.61 0 0 0 6.9,13.546 1.808,1.808 0 0 0 6.269,12.529 1.808,1.808 0 0 0 6.9,11.512 1.472,1.472 0 0 0 6.725,10.354 1.7,1.7 0 0 0 7.672,9.654 1.73,1.73 0 0 0 7.953,8.497 1.554,1.554 0 0 0 8.326,8.504 L 7.773,9.617 a 0.392,0.392 0 0 0 0.07,0.386 0.319,0.319 0 0 0 0.386,0.07 L 9.6,9.512 9.88,10.845 c 0,0.141 0.141,0.246 0.281,0.281 h 0.035 a 0.486,0.486 0 0 0 0.351,-0.176 l 1.429,-2.859 1.412,2.824 a 0.338,0.338 0 0 0 0.316,0.211 h 0.07 a 0.379,0.379 0 0 0 0.281,-0.281 l 0.281,-1.368 1.368,0.561 A 0.344,0.344 0 0 0 16.16,9.582 L 15.616,8.5 a 1.583,1.583 0 0 0 0.4,0 1.73,1.73 0 0 0 0.28,1.157 z M 9.22,8.126 C 9.241,8.109 9.261,8.091 9.281,8.073 9.316,8.038 9.316,8.003 9.351,7.968 L 9.384,7.92 A 4.618,4.618 0 0 0 11.07,7.442 L 11.513,7.221 11.546,7.227 10.334,9.687 10.193,8.95 C 10.158,8.85 10.123,8.74 10.018,8.705 A 0.316,0.316 0 0 0 9.843,8.67 0.213,0.213 0 0 1 9.7,8.635 l -0.912,0.35 z m 3.113,-0.895 c 0.035,0 0.035,0 0.07,0.036 l 0.421,0.21 a 4.062,4.062 0 0 0 1.684,0.491 L 15.07,9.091 14.157,8.74 c -0.07,-0.07 -0.175,-0.035 -0.281,0 a 0.405,0.405 0 0 0 -0.175,0.245 l -0.14,0.737 z m 3.543,-4.525 a 0.666,0.666 0 0 1 0.456,0.175 c 0.281,0.316 0.211,0.772 -0.105,1.369 a 5.12,5.12 0 0 0 -0.386,2.315 0.666,0.666 0 0 1 -0.6,0.631 0.511,0.511 0 0 1 -0.211,0.035 H 14.785 A 4.235,4.235 0 0 1 13.234,6.824 2.071,2.071 0 0 0 13.982,5.7 l 0.005,-0.02 c 0.006,-0.023 0.011,-0.046 0.016,-0.07 0.005,-0.024 0.015,-0.069 0.02,-0.1 0.005,-0.031 0.007,-0.043 0.01,-0.065 l 0.006,-0.047 c 0,-0.026 0.005,-0.052 0.007,-0.078 V 5.283 q 0,-0.058 0,-0.117 0,-0.059 0,-0.117 V 5.014 c 0,-0.027 0,-0.055 -0.007,-0.082 V 4.895 c 0,-0.027 -0.007,-0.053 -0.012,-0.08 C 14.022,4.788 14.013,4.737 14.004,4.698 L 13.997,4.669 C 13.99,4.639 13.982,4.609 13.973,4.58 L 13.967,4.559 C 13.957,4.525 13.945,4.49 13.933,4.459 V 4.452 C 13.92,4.417 13.907,4.383 13.892,4.352 13.877,4.321 13.868,4.298 13.855,4.271 L 13.85,4.26 a 2.357,2.357 0 0 0 -0.6,-0.772 7.7,7.7 0 0 1 2.631,-0.772 z m -3.523,1.113 a 0.308,0.308 0 0 0 0.086,0.045 1.331,1.331 0 0 1 0.24,0.1 1.4,1.4 0 0 1 -0.128,2.461 1.43,1.43 0 0 1 -0.183,0.068 2.093,2.093 0 0 1 -0.421,0.07 A 1.37,1.37 0 0 1 11.647,6.53 0.3,0.3 0 0 0 11.56,6.493 1.4,1.4 0 0 1 10.575,5.457 V 5.447 5.421 L 10.568,5.382 V 5.357 5.316 5.292 5.246 5.226 c 0,-0.022 0,-0.044 0,-0.066 0,-0.022 0,-0.062 0,-0.092 V 5.027 4.996 a 1.4,1.4 0 0 1 1.8,-1.179 z M 7.527,2.919 A 0.564,0.564 0 0 1 7.983,2.708 h 0.07 A 7.669,7.669 0 0 1 10.684,3.48 L 10.629,3.526 A 2.115,2.115 0 0 0 9.877,4.788 V 4.806 C 9.872,4.837 9.867,4.867 9.863,4.897 v 0.031 c 0,0.029 -0.006,0.057 -0.008,0.086 v 0.032 c 0,0.039 0,0.079 0,0.118 0,0.039 0,0.078 0,0.117 v 0.037 c 0,0.026 0,0.052 0.007,0.078 l 0.006,0.048 c 0,0.021 0.006,0.042 0.01,0.063 0.004,0.021 0.012,0.068 0.019,0.1 l 0.018,0.078 v 0 a 2.244,2.244 0 0 0 0.764,1.183 Q 10.574,6.925 10.466,6.976 A 3.961,3.961 0 0 1 9.328,7.257 0.371,0.371 0 0 0 9.181,7.228 H 8.9 A 0.992,0.992 0 0 0 8.685,7.2 C 8.085,7.025 8.085,6.639 8.085,6.534 A 5.841,5.841 0 0 0 7.769,4.464 0.281,0.281 0 0 0 7.714,4.394 C 7.689,4.337 7.67,4.302 7.664,4.294 7.313,3.694 7.278,3.241 7.524,2.926 Z m 12.629,10.416 a 0.3,0.3 0 0 0 -0.245,0.281 0.334,0.334 0 0 0 0.14,0.351 0.782,0.782 0 0 1 0.316,0.877 0.8,0.8 0 0 1 -0.7,0.6 0.352,0.352 0 0 0 -0.281,0.211 0.431,0.431 0 0 0 0.071,0.351 0.8,0.8 0 0 1 0.07,0.947 0.777,0.777 0 0 1 -0.842,0.386 0.408,0.408 0 0 0 -0.351,0.14 0.324,0.324 0 0 0 -0.035,0.351 0.772,0.772 0 0 1 -0.175,0.912 0.759,0.759 0 0 1 -0.912,0.176 0.322,0.322 0 0 0 -0.351,0.035 0.358,0.358 0 0 0 -0.141,0.35 0.733,0.733 0 0 1 -0.385,0.842 0.8,0.8 0 0 1 -0.948,-0.07 0.334,0.334 0 0 0 -0.35,-0.07 0.3,0.3 0 0 0 -0.211,0.281 0.792,0.792 0 0 1 -0.6,0.7 0.78,0.78 0 0 1 -0.877,-0.315 0.45,0.45 0 0 0 -0.349,-0.144 0.343,0.343 0 0 0 -0.281,0.246 0.829,0.829 0 0 1 -1.543,0 0.3,0.3 0 0 0 -0.281,-0.246 H 10.86 a 1.04,1.04 0 0 0 -0.351,0.106 0.781,0.781 0 0 1 -0.877,0.315 0.794,0.794 0 0 1 -0.6,-0.7 0.348,0.348 0 0 0 -0.211,-0.281 0.431,0.431 0 0 0 -0.35,0.07 0.8,0.8 0 0 1 -0.948,0.07 A 0.777,0.777 0 0 1 7.138,19.265 0.4,0.4 0 0 0 7,18.914 0.322,0.322 0 0 0 6.649,18.879 0.772,0.772 0 0 1 5.737,18.703 0.76,0.76 0 0 1 5.562,17.791 0.324,0.324 0 0 0 5.527,17.44 0.359,0.359 0 0 0 5.176,17.3 0.778,0.778 0 0 1 4.334,16.914 0.8,0.8 0 0 1 4.404,15.967 0.334,0.334 0 0 0 4.475,15.616 0.307,0.307 0 0 0 4.194,15.406 0.793,0.793 0 0 1 3.494,14.806 0.783,0.783 0 0 1 3.81,13.929 0.45,0.45 0 0 0 3.95,13.578 0.339,0.339 0 0 0 3.7,13.3 0.829,0.829 0 0 1 3.7,11.756 0.3,0.3 0 0 0 3.946,11.476 0.334,0.334 0 0 0 3.806,11.125 0.783,0.783 0 0 1 3.49,10.248 0.8,0.8 0 0 1 4.19,9.648 0.348,0.348 0 0 0 4.47,9.438 0.433,0.433 0 0 0 4.4,9.087 0.861,0.861 0 0 1 4.33,8.14 0.777,0.777 0 0 1 5.172,7.754 0.408,0.408 0 0 0 5.523,7.614 0.548,0.548 0 0 0 5.633,7.2 0.772,0.772 0 0 1 5.808,6.288 0.759,0.759 0 0 1 6.72,6.112 0.32,0.32 0 0 0 7.071,6.077 0.358,0.358 0 0 0 7.212,5.727 0.715,0.715 0 0 1 7.25,5.356 6.489,6.489 0 0 1 7.35,6.568 1.385,1.385 0 0 0 8.126,7.768 1.008,1.008 0 0 1 7.49,7.514 0.338,0.338 0 0 0 6.999,7.514 0.374,0.374 0 0 0 7,8 1.007,1.007 0 0 1 7.07,9.228 1.026,1.026 0 0 1 5.913,9.614 a 0.4,0.4 0 0 0 -0.456,0.21 0.348,0.348 0 0 0 0.175,0.456 0.938,0.938 0 0 1 0.526,1.088 0.978,0.978 0 0 1 -0.912,0.806 0.347,0.347 0 0 0 -0.316,0.351 0.921,0.921 0 0 0 0.211,0.456 0.978,0.978 0 0 1 0.912,0.807 0.938,0.938 0 0 1 -0.526,1.088 0.348,0.348 0 0 0 -0.176,0.456 0.365,0.365 0 0 0 0.456,0.21 1.025,1.025 0 0 1 1.158,0.386 0.962,0.962 0 0 1 -0.065,1.232 0.338,0.338 0 0 0 0,0.491 0.374,0.374 0 0 0 0.491,0 1.007,1.007 0 0 1 1.228,-0.07 1.026,1.026 0 0 1 0.381,1.157 0.4,0.4 0 0 0 0.21,0.456 0.347,0.347 0 0 0 0.456,-0.175 1,1 0 0 1 1.895,0.386 0.352,0.352 0 0 0 0.7,0 0.978,0.978 0 0 1 0.807,-0.912 0.938,0.938 0 0 1 1.088,0.526 0.347,0.347 0 0 0 0.456,0.175 0.365,0.365 0 0 0 0.21,-0.456 1.024,1.024 0 0 1 0.386,-1.157 0.961,0.961 0 0 1 1.228,0.07 0.339,0.339 0 0 0 0.491,0 0.374,0.374 0 0 0 0,-0.491 1.007,1.007 0 0 1 -0.07,-1.228 1.024,1.024 0 0 1 1.157,-0.386 0.4,0.4 0 0 0 0.456,-0.21 0.348,0.348 0 0 0 -0.175,-0.456 1,1 0 0 1 0.386,-1.9 0.353,0.353 0 0 0 0,-0.7 0.977,0.977 0 0 1 -0.912,-0.807 0.938,0.938 0 0 1 0.526,-1.088 0.348,0.348 0 0 0 0.175,-0.456 0.365,0.365 0 0 0 -0.456,-0.21 1.026,1.026 0 0 1 -1.157,-0.386 0.961,0.961 0 0 1 0.07,-1.228 0.339,0.339 0 0 0 0,-0.491 0.374,0.374 0 0 0 -0.491,0 0.974,0.974 0 0 1 -0.772,0.245 1.263,1.263 0 0 0 0.844,-1.206 0.831,0.831 0 0 0 0,-0.122 c 0,-0.181 0.006,-0.346 0.014,-0.5 A 6.133,6.133 0 0 1 16.594,5.39 C 16.6,5.358 16.606,5.326 16.613,5.295 a 0.661,0.661 0 0 1 0.105,0.526 0.407,0.407 0 0 0 0.141,0.351 0.322,0.322 0 0 0 0.35,0.035 0.771,0.771 0 0 1 0.912,0.175 0.759,0.759 0 0 1 0.179,0.918 0.324,0.324 0 0 0 0.035,0.351 0.359,0.359 0 0 0 0.351,0.14 0.779,0.779 0 0 1 0.842,0.386 0.8,0.8 0 0 1 -0.071,0.947 0.336,0.336 0 0 0 -0.07,0.351 0.306,0.306 0 0 0 0.281,0.211 0.756,0.756 0 0 1 0.7,0.6 0.782,0.782 0 0 1 -0.316,0.877 0.36,0.36 0 0 0 -0.141,0.351 0.344,0.344 0 0 0 0.246,0.281 0.829,0.829 0 0 1 0,1.543"/></svg>
